!!!OTL: "Mariens Lob" MARIA, WAHRE HIMMELFREUD
!!!ARE: Europa, Mitteleuropa, Deutschland, Niederrhein
!!!SCT: Z1127
!!!YEM: Copyright 1995, estate of Helmut Schaffrath.
**kern
*ICvox
*Ivox
!! Mixed meters:  4/4; 3/4
*M4/4
*k[b-e-]
*g:
{4d
=1
2g
2a
=2
4b-
2dd
8cc
8b-
=3
2a
4b-
4a
=4
2g}
{4dd
4ee-
=5
2ffn
4dd
4cc
=6
2dd
2cc
=7
2b-}
{4dd
4ee-
=8
*M3/4
4ffn
4ffn
8dd
8ee-
=9
8dd
8cc
4cc}
{4dd
=10
4ee-
4dd
8cc
8b-
=11
8b-
8a
4b-}
{8b-
8cc
=12
4dd
4dd
8cc
8b-
=13
8a
8g
4a}
{8a
8b-
=14
4cc
4dd
8b-
8a
=15
8g
8f#
8g
8a}
{8b-
8cc
=16
2dd
8cc
8b-
=17
2a
4g
=18
2g}
==
!!!AGN: religioeses Lied, Maria
!!!ONB: ESAC (Essen Associative Code) Database: ZUCCAL
!!!AMT: irregular
!!!AIN: vox
!!!EED: Helmut Schaffrath
!!!EEV: 1.0
*-
